X: 33784
T: Rawgabbit, The
R: jig
M: 6/8
K: Gmajor
D|:GFG BAG|FED cBA|BdB cAG|FAF DEF|
GFG BAG|FED cBA|BdB cAF|1 AGF GGD:|2 dgf g2d||
gfg bag|fed cAF|GFG BdB|cag fed|
gfg bag|fed ^cde|gdB gdB|1 AGF GBd:|2 AGF G2||

